X: 1
T: Nipper, The
M: 6/8
L: 1/8
R: jig
K: Dmaj
|:dFG AGF|dFG AGF|dFG AGF|GEF GAB|
  dFG AGF|dFG ABd|~f3 edB|GEF GAB:|
|:f2f Bdf|afa bag|ece Ace|gfg b2a|
  ~f3 Bdf|afa bag|~e3 Ace|1edc d2 e:|2edc d3|
